X:16995
T:The Man from Bundoran
R:Reel
S:
H:
N:
D:
Z:Adrian Scahill
M:2/2
L:1/8
K:A
BEE2 BEcE|BEE2 BcdB|cAA2 cAeA|1 ceef e2dc:|2 ceef e2de||\
f3e d3B|Adfe d3e|fdd2 fgaf|1 ecAc e2de:|2 ecAc e2dc||
